packages/katcn/src/icons/svg/arrow2-solid.svg

<svg width="24" height="25" viewBox="0 0 24 25" fill="none" xmlns="http://www.w3.org/2000/svg">
<path d="M13.9 20.296H4.00001C2.20001 20.296 1.30001 17.896 2.60001 16.396L6.10001 12.296L2.60001 8.19599C1.30001 6.69599 2.20001 4.29599 4.00001 4.29599H13.9C14.9 4.29599 15.9 4.79599 16.7 5.59599L21.4 10.696C22.2 11.596 22.2 13.096 21.4 13.996L16.7 19.096C15.9 19.796 14.9 20.296 13.9 20.296Z" fill="black"/>
</svg>

<svg xmlns="http://www.w3.org/2000/svg" fill="none" viewBox="0 0 24 25"><path fill="#000" d="M13.9 20.296H4c-1.8 0-2.7-2.4-1.4-3.9l3.5-4.1-3.5-4.1c-1.3-1.5-.4-3.9 1.4-3.9h9.9c1 0 2 .5 2.8 1.3l4.7 5.1c.8.9.8 2.4 0 3.3l-4.7 5.1c-.8.7-1.8 1.2-2.8 1.2"/></svg>
